X: 3035
M: 3/4
L: 1/8
K: Dm
|:\
f2 e2 d2 | a4 b2 | g2 f2 a2 | f3 e d2 |\
f2 e2 d2 | a4 A2 | d2 e2 f2 | ^c6 ::\
e2 a2 e2 | f3 e d2 | cd cB AB |
c2 B2 A2 | d6 | e2 d2 c2 | f4 d2 |\
g2 f2 e2 | a2 ^c2 d2 | e2 e4 | Hd6 |]


